src/assets/twitter.svg

<svg width="16" height="13" viewBox="0 0 16 13" fill="none" xmlns="http://www.w3.org/2000/svg">
<path d="M14.3553 3.241C14.3655 3.38313 14.3655 3.52529 14.3655 3.66741C14.3655 8.00241 11.066 12.9973 5.03553 12.9973C3.17766 12.9973 1.45178 12.4593 0 11.5253C0.263969 11.5557 0.51775 11.5659 0.791875 11.5659C2.32484 11.5659 3.73603 11.0481 4.86294 10.1649C3.42131 10.1344 2.21319 9.19025 1.79694 7.89075C2 7.92119 2.20303 7.9415 2.41625 7.9415C2.71066 7.9415 3.00509 7.90088 3.27919 7.82985C1.77666 7.52525 0.649719 6.20547 0.649719 4.61157V4.57097C1.08625 4.81463 1.59391 4.96691 2.13194 4.98719C1.24869 4.39835 0.670031 3.39329 0.670031 2.25622C0.670031 1.6471 0.832438 1.08872 1.11672 0.60141C2.73094 2.59125 5.15734 3.89072 7.87813 4.03288C7.82738 3.78922 7.79691 3.53544 7.79691 3.28163C7.79691 1.4745 9.25884 0.00244141 11.0761 0.00244141C12.0203 0.00244141 12.873 0.398379 13.472 1.03797C14.2131 0.895848 14.9238 0.621723 15.5533 0.246098C15.3096 1.00754 14.7918 1.64713 14.1116 2.05319C14.7715 1.98216 15.4111 1.79938 15.9999 1.5456C15.5533 2.19532 14.9949 2.77397 14.3553 3.241Z" fill="white"/>
</svg>

<svg xmlns="http://www.w3.org/2000/svg" width="16" height="13" fill="none" viewBox="0 0 16 13"><path fill="#fff" d="M14.355 3.241c.01.142.01.284.01.426 0 4.335-3.299 9.33-9.33 9.33A9.27 9.27 0 0 1 0 11.525c.264.03.518.04.792.04a6.57 6.57 0 0 0 4.07-1.4A3.285 3.285 0 0 1 1.798 7.89c.203.03.406.05.62.05.294 0 .588-.04.862-.111A3.28 3.28 0 0 1 .65 4.612V4.57a3.3 3.3 0 0 0 1.483.416A3.28 3.28 0 0 1 .67 2.257c0-.61.162-1.168.447-1.656a9.32 9.32 0 0 0 6.761 3.432 3.7 3.7 0 0 1-.081-.751 3.28 3.28 0 0 1 3.28-3.28 3.27 3.27 0 0 1 2.395 1.036 6.5 6.5 0 0 0 2.081-.792 3.27 3.27 0 0 1-1.441 1.807c.66-.07 1.3-.254 1.888-.507a7 7 0 0 1-1.645 1.695"/></svg>
